X:2290 
T:Ec nollick ball ny fiddleryn 
S:W. Corlett, miner, Laxey
C:Traditional
O:Isle of Man
Z:Clague collection
B:Kiaull Vannin #290
N:See also KV43, 239. 
M:3/4 
L:1/8 
Q:70 
K:D 
AFA|d2 fg fe|dd z DFA|d2 fg fe|d3 dfe|d2 A2 BA|FE DE FG|A2 GE DD|D3|| 

